X:1153
T:The Lord Monk's March
T:General Monk's March
C:anon.
O:England
B:Playford: The Dancing Master, 3rd ed., supplement, 1657, via Barlow's book, 1985
R:March
F:http://abc.musicaviva.com/tunes/england/playford-lord-monks-march/playford-lord-monks-march.abc
%Posted September 2nd 2000 at abcusers by Bruce Olson in response to a request for the tune
M:C|
L:1/8
Q:1/2=120
K:Dm
FD3 F4|cA3 c4|Ac(dc) A2(GF)|(EF)(GF) E2(DC)|(FD3) F3d|(cA3) f4|\
e4 (d^c)(de)|^c(G3 A4)::g4 a4|f3c (dc)(AF)|G4 d4|G6 (AB)|\
(cd)(cA) c3A|(GE)CE G3E|(FG)(FD) (cd)(cA)|F(D3 D4):|
W:
W:
W:  From Musica Viva - http://www.musicaviva.com
W:  the Internet center for free sheet music downloads.
